src/img/service-1.svg

<svg width="40" height="40" viewBox="0 0 40 40" fill="none" xmlns="http://www.w3.org/2000/svg">
<rect y="20" width="20" height="20" rx="8" fill="#3ED9B0"/>
<path d="M19.0322 19.3549H2.25799C1.18904 19.3549 0.32251 20.2214 0.32251 21.2903C0.323397 23.9405 1.41493 26.4735 3.34057 28.2942L4.19348 39.4045C4.21953 39.7413 4.5009 40.001 4.83864 40H16.4515C16.7893 40.001 17.0707 39.7413 17.0967 39.4045L17.9515 28.2942C19.8765 26.4732 20.9673 23.9402 20.9677 21.2903C20.9677 20.2214 20.1011 19.3549 19.0322 19.3549ZM1.83412 23.1761C1.97315 23.2082 2.11533 23.2248 2.25799 23.2258H2.9509L3.17541 26.1484C2.53727 25.2554 2.08146 24.2454 1.83412 23.1761ZM15.8541 38.7097H5.43606L5.3367 37.4194H15.9535L15.8541 38.7097ZM16.0522 36.1291H5.23799L4.72186 29.3897C6.28961 30.4194 8.12428 30.9679 9.99993 30.9678H11.2903C13.1668 30.9684 15.0024 30.4199 16.5709 29.3897L16.0522 36.1291ZM16.7019 27.6871C15.1919 28.9727 13.2734 29.6783 11.2903 29.6774H9.99993C8.01678 29.6783 6.09824 28.9727 4.58832 27.6871L4.24509 23.2258H17.0451L16.7019 27.6871ZM18.1148 26.1484L18.3393 23.2258H19.0322C19.1748 23.2248 19.317 23.2082 19.4561 23.1761C19.2087 24.2454 18.7529 25.2554 18.1148 26.1484ZM19.0322 21.9355H2.25799C1.9017 21.9355 1.61283 21.6466 1.61283 21.2903C1.61283 20.9341 1.9017 20.6452 2.25799 20.6452H19.0322C19.3885 20.6452 19.6773 20.9341 19.6773 21.2903C19.6773 21.6466 19.3885 21.9355 19.0322 21.9355Z" fill="#333333"/>
<path d="M3.31229 16.7994L4.12261 16.649L3.78261 15.8987C3.62955 15.5662 3.54971 15.2048 3.54842 14.8387C3.54842 13.4135 4.70382 12.2581 6.12906 12.2581C6.94479 12.2575 7.71181 12.6463 8.19358 13.3045L8.58068 13.8252L9.09681 13.4335C9.68568 12.9842 10.4396 12.8102 11.1658 12.9561L11.9523 13.1187L11.9413 12.3155C11.9413 12.2723 11.9362 12.2406 11.9349 12.2581C11.9286 10.8328 13.0789 9.67234 14.5041 9.66605C15.9294 9.65976 17.0899 10.8101 17.0962 12.2353C17.097 12.432 17.0754 12.6282 17.0317 12.82L16.8853 13.4781L17.5491 13.5955C18.7799 13.8108 19.6778 14.8796 19.6775 16.129H20.9679C20.9691 14.4869 19.9307 13.024 18.3801 12.4832C18.3871 12.4077 18.3871 12.3329 18.3871 12.2581C18.3891 10.1202 16.6575 8.38548 14.5197 8.38355C12.6281 8.38185 11.0123 9.74742 10.6987 11.6129C10.0458 11.6054 9.4018 11.7648 8.82777 12.0761C8.11043 11.364 7.13987 10.9653 6.12906 10.9677C3.99205 10.9698 2.26019 12.7017 2.2581 14.8387C2.25818 15.1523 2.29737 15.4646 2.37487 15.7684C1.51205 16.209 0.96858 17.0957 0.967773 18.0645H2.2581C2.25971 17.4442 2.70245 16.9129 3.31229 16.7994Z" fill="#333333"/>
<path d="M16.4515 15.4839C15.0263 15.4839 13.8708 16.6393 13.8708 18.0645H15.1612C15.1612 17.3519 15.7388 16.7742 16.4515 16.7742C17.1642 16.7742 17.7418 17.3519 17.7418 18.0645H19.0321C19.0321 16.6393 17.8767 15.4839 16.4515 15.4839Z" fill="#333333"/>
<path d="M39.6774 38.7097H20.3225V40H39.6774V38.7097Z" fill="#333333"/>
<path d="M39.2335 33.589V33.5813L31.9354 31.1477V0.645161C31.9354 0.288871 31.6465 0 31.2903 0H28.7096C28.3533 0 28.0644 0.288871 28.0644 0.645161V31.1477L20.7638 33.5813V33.589C20.5018 33.6744 20.324 33.918 20.3225 34.1935V36.7742C20.3225 37.1305 20.6114 37.4194 20.9677 37.4194H39.0322C39.3885 37.4194 39.6774 37.1305 39.6774 36.7742V34.1935C39.6755 33.9173 39.4965 33.6735 39.2335 33.589ZM29.3548 1.29032H30.6451V2.58065H29.3548V1.29032ZM29.3548 3.87097H30.6451V6.45161H29.3548V3.87097ZM29.3548 7.74194H30.6451V25.8064H29.3548V7.74194ZM29.3548 27.0968H30.6451V30.9677H29.3548V27.0968ZM28.8141 32.2581H31.1857L35.0567 33.5484H24.9432L28.8141 32.2581ZM38.387 36.129H21.6128V34.8387H38.387V36.129Z" fill="#333333"/>
<path d="M38.387 27.7419H37.0967V29.0323H38.387V27.7419Z" fill="#333333"/>
<path d="M38.387 30.3226H37.0967V31.613H38.387V30.3226Z" fill="#333333"/>
<path d="M37.0967 29.0322H35.8064V30.3225H37.0967V29.0322Z" fill="#333333"/>
<path d="M39.6773 29.0322H38.387V30.3225H39.6773V29.0322Z" fill="#333333"/>
</svg>

<svg width="40" height="40" viewBox="0 0 40 40" xmlns="http://www.w3.org/2000/svg" fill="none"><rect y="20" width="20" height="20" rx="8" fill="#3ED9B0"/><path d="M19.032 19.355h-16.774c-1.069 0-1.935.866-1.935 1.935.001 2.65 1.092 5.183 3.018 7.004l.853 11.11c.026.337.307.596.645.596h11.613c.338.001.619-.259.645-.596l.855-11.11c1.925-1.821 3.016-4.354 3.016-7.004 0-1.069-.867-1.935-1.936-1.935zm-17.198 3.821c.139.032.281.049.424.05h.693l.225 2.923c-.638-.893-1.094-1.903-1.341-2.972zm14.02 15.534h-10.418l-.099-1.29h10.617l-.099 1.29zm.198-2.581h-10.814l-.516-6.739c1.568 1.03 3.402 1.578 5.278 1.578h1.29c1.877.001 3.712-.548 5.281-1.578l-.519 6.739zm.65-8.442c-1.51 1.286-3.428 1.991-5.412 1.99h-1.29c-1.983.001-3.902-.705-5.412-1.99l-.343-4.461h12.8l-.343 4.461zm1.413-1.539l.225-2.923h.693c.143-.001.285-.018.424-.05-.247 1.069-.703 2.079-1.341 2.972zm.917-4.213h-16.774c-.356 0-.645-.289-.645-.645 0-.356.289-.645.645-.645h16.774c.356 0 .645.289.645.645 0 .356-.289.645-.645.645zM3.312 16.799l.81-.15-.34-.75c-.153-.332-.233-.694-.234-1.06 0-1.425 1.155-2.581 2.581-2.581.816-.001 1.583.388 2.065 1.046l.387.521.516-.392c.589-.449 1.343-.623 2.069-.477l.786.163-.011-.803-.006-.057c-.006-1.425 1.144-2.586 2.569-2.592 1.425-.006 2.586 1.144 2.592 2.569.001.197-.021.393-.064.585l-.146.658.664.117c1.231.215 2.129 1.284 2.128 2.534h1.29c.001-1.642-1.037-3.105-2.588-3.646l.007-.225c.002-2.138-1.73-3.873-3.867-3.875-1.892-.002-3.507 1.364-3.821 3.229-.653-.008-1.297.152-1.871.463-.717-.712-1.688-1.111-2.699-1.108-2.137.002-3.869 1.734-3.871 3.871 0 .314.039.626.117.93-.863.441-1.406 1.327-1.407 2.296h1.29c.002-.62.444-1.152 1.054-1.265zM16.451 15.484c-1.425 0-2.581 1.155-2.581 2.581h1.29c0-.713.578-1.29 1.29-1.29.713 0 1.29.578 1.29 1.29h1.29c0-1.425-1.155-2.581-2.581-2.581zM39.677 38.71h-19.355v1.29h19.355v-1.29zM39.233 33.589v-.008l-7.298-2.434v-30.503c0-.356-.289-.645-.645-.645h-2.581c-.356 0-.645.289-.645.645v30.503l-7.301 2.434v.008c-.262.085-.44.329-.441.605v2.581c0 .356.289.645.645.645h18.065c.356 0 .645-.289.645-.645v-2.581c-.002-.276-.181-.52-.444-.605zm-9.879-32.299h1.29v1.29h-1.29v-1.29zm0 2.581h1.29v2.581h-1.29v-2.581zm0 3.871h1.29v18.064h-1.29v-18.064zm0 19.355h1.29v3.871h-1.29v-3.871zm-.541 5.161h2.372l3.871 1.29h-10.113l3.871-1.29zm9.573 3.871h-16.774v-1.29h16.774v1.29zM38.387 27.742h-1.29v1.29h1.29v-1.29zM38.387 30.323h-1.29v1.29h1.29v-1.29zM37.097 29.032h-1.29v1.29h1.29v-1.29zM39.677 29.032h-1.29v1.29h1.29v-1.29z" fill="#333"/></svg>
